dist/img/icons/services/pharmacy.svg

<svg width="112" height="112" viewBox="0 0 112 112" fill="none" xmlns="http://www.w3.org/2000/svg">
<path d="M78.2705 60.2527V103.733C67.8753 101.959 59.937 92.8852 59.937 81.9929C59.937 71.1005 67.8753 62.0268 78.2705 60.2527ZM14.4113 97.5888L14.0577 97.9424L14.4113 97.5888C5.79174 88.9695 5.79049 75.0179 14.4113 66.3973L14.0577 66.0437L14.4113 66.3973L37.5756 43.233L58.5052 64.1625C54.7341 69.1181 52.4925 75.299 52.4925 81.9929C52.4925 84.6513 52.8471 87.2291 53.5098 89.6819L45.6028 97.5888C36.9833 106.208 23.0319 106.209 14.4113 97.5888ZM97.5887 14.4112L97.9423 14.0577L97.5887 14.4112C106.208 23.0306 106.21 36.9822 97.5887 45.6028L89.6818 53.5097C87.229 52.8468 84.6514 52.4924 81.9929 52.4924C75.098 52.4924 68.7483 54.8718 63.7204 58.8498L42.8395 37.9689L66.3972 14.4112C75.0167 5.79187 88.9681 5.79062 97.5887 14.4112ZM50.8668 102.853L56.6473 97.0727C61.7993 105.7 71.231 111.493 81.9929 111.493C98.2599 111.493 111.493 98.26 111.493 81.9931C111.493 71.231 105.7 61.7993 97.0726 56.6472L102.853 50.8669C114.382 39.338 114.383 20.6771 102.853 9.14707C91.3244 -2.38158 72.6632 -2.38313 61.1333 9.14704C59.1069 11.173 25.5399 44.7403 13.4034 56.8769L9.14715 61.1331C-2.38172 72.662 -2.38305 91.323 9.14716 102.853C20.6756 114.382 39.3368 114.383 50.8668 102.853ZM85.7152 103.733V60.2529C96.1103 62.0271 104.049 71.1007 104.049 81.9931C104.049 92.8852 96.1103 101.959 85.7152 103.733Z" fill="#FFC59E" stroke="#FFC59E"/>
</svg>

<svg width="112" height="112" fill="none" xmlns="http://www.w3.org/2000/svg"><path d="M78.27 60.253v43.48c-10.395-1.774-18.333-10.848-18.333-21.74 0-10.892 7.938-19.966 18.334-21.74zM14.411 97.589l-.353.353.353-.353c-8.62-8.62-8.62-22.571 0-31.192l-.353-.353.353.353 23.165-23.164 20.93 20.93a29.351 29.351 0 00-6.014 17.83c0 2.658.355 5.236 1.018 7.689l-7.907 7.907c-8.62 8.619-22.571 8.62-31.192 0zM97.59 14.41l.353-.353-.353.353c8.619 8.62 8.621 22.571 0 31.192l-7.907 7.907a29.433 29.433 0 00-7.69-1.018A29.358 29.358 0 0063.72 58.85L42.84 37.969 66.397 14.41c8.62-8.62 22.571-8.62 31.192 0zm-46.722 88.442l5.78-5.78c5.152 8.627 14.584 14.42 25.346 14.42 16.267 0 29.5-13.233 29.5-29.5 0-10.762-5.793-20.194-14.42-25.346l5.78-5.78c11.529-11.529 11.53-30.19 0-41.72-11.529-11.529-30.19-11.53-41.72 0l-47.73 47.73-4.256 4.256c-11.529 11.529-11.53 30.19 0 41.72 11.529 11.529 30.19 11.53 41.72 0zm34.848.88v-43.48C96.11 62.027 104.05 71.1 104.05 81.993c0 10.892-7.939 19.966-18.334 21.74z" fill="#FFC59E" stroke="#FFC59E"/></svg>
